Yaru++/mimetypes/scalable/text-x-vala.svg

<svg height="256" viewBox="0 0 67.73 67.73" width="256" xmlns="http://www.w3.org/2000/svg" xmlns:xlink="http://www.w3.org/1999/xlink"><radialGradient id="a" cx="179.99261" cy="103.2822" gradientTransform="matrix(1.3687341 -.00000021 .0000002 1.3528551 -121.02851 -70.900578)" gradientUnits="userSpaceOnUse" r="35.068905"><stop offset="0"/><stop offset="1" stop-opacity="0"/></radialGradient><filter id="b" color-interpolation-filters="sRGB" height="1.144" width="1.144" x="-.072" y="-.072"><feGaussianBlur stdDeviation="1.98"/></filter><linearGradient id="c" gradientTransform="matrix(0 -.11988342 .11987999 0 .362762 62.749399)" gradientUnits="userSpaceOnUse" x1="529.65515" x2="-35.310345" y1="401.58368" y2="119.09284"><stop offset="0" stop-color="#f2f2f2"/><stop offset="1" stop-color="#f9f9f9"/></linearGradient><linearGradient id="d" gradientUnits="userSpaceOnUse" x1="88" x2="488" y1="88" y2="488"><stop offset="0" stop-opacity=".588235"/><stop offset=".88" stop-opacity="0"/><stop offset="1"/></linearGradient><filter id="e" color-interpolation-filters="sRGB" height="1.087725" width="1.105998" x="-.052999" y="-.043863"><feGaussianBlur stdDeviation="8.4801079"/></filter><filter id="f" color-interpolation-filters="sRGB" height="1.021931" width="1.0265" x="-.01325" y="-.010966"><feGaussianBlur stdDeviation="2.120027"/></filter><path d="m20.703991 3.4856502c-9.338465 0-10.343273.959177-10.297505 10.3165298v19.315345 19.315344c-.04577 9.357355.95904 10.316531 10.297505 10.316531h25.969365c9.338465 0 10.297506-.959068 10.297506-10.316531v-19.315344-12.699376l-16.9325-16.9324988z" fill="none" opacity=".2" stroke="#000" stroke-width="1.058281"/><path d="m189.84323 74c-70.59344 0-78.18921 7.250835-77.84323 77.98706v146.01294 146.01294c-.34598 70.73623 7.24979 77.98706 77.84323 77.98706h196.31354c70.59344 0 76.00668-7.27384 77.84323-77.98706v-146.01294-98l-128-126z" filter="url(#f)" opacity=".1" transform="matrix(.13228516 0 0 .13228516 -4.409451 -6.038882)"/><path d="m189.84323 74c-70.59344 0-78.18921 7.250835-77.84323 77.98706v146.01294 146.01294c-.34598 70.73623 7.24979 77.98706 77.84323 77.98706h196.31354c70.59344 0 77.84323-7.24999 77.84323-77.98706v-146.01294-96l-128-128z" fill="url(#d)" filter="url(#e)" opacity=".3" transform="matrix(.13228516 0 0 .13228516 -4.409451 -6.038882)"/><path d="m20.703991 3.4856502c-9.338465 0-10.343273.959177-10.297505 10.3165298v19.315345 19.315344c-.04577 9.357355.95904 10.316531 10.297505 10.316531h25.969365c9.338465 0 10.297506-.959068 10.297506-10.316531v-19.315344-12.699376l-16.9325-16.9324988z" fill="url(#c)"/><path d="m20.70406 3.4856502c-9.338467 0-10.343342.959339-10.297574 10.3166908v.529141c-.045768-9.3573518.959107-10.3166918 10.297574-10.3166918h19.334302v-.52914z" fill="#fff" opacity=".6"/><path d="m28.137527 45.125-.563964-23.908691q-2.460938.922851-3.845215 2.888183-1.367188 1.965332-1.367188 4.887695 0 .666504.06836 1.09375.08545.410157.170898.666504.08545.239258.153809.375977.08545.136719.08545.239258-.905762 0-1.606445-.170899-.700684-.187988-1.1792-.581054-.461426-.393067-.717774-1.042481-.239258-.649414-.239258-1.606445 0-1.16211.495606-2.290039.512695-1.12793 1.384277-2.136231.888672-1.0083 2.067871-1.862793 1.196289-.854492 2.546387-1.469726 1.367187-.632324 2.836914-.974121 1.486816-.358887 2.956543-.358887.393066 0 .717773.01709.341797.01709.683594.05127l.307617 21.533203 7.365723-21.430664h2.443847l-9.724121 26.079102z" fill="#7839b7" transform="matrix(1.0885178 0 0 1.0885178 -.056083 5.957493)"/><g fill="#fff"><path d="m33.688674 3.4856502v59.2637498h12.984614c9.338464 0 10.054627-.962123 10.297574-10.316435v-19.31544-12.699376l-16.9325-16.9324988z" opacity=".1"/><path d="m10.406486 33.117525v19.31544c-.04577 9.357354.959108 10.316435 10.297574 10.316435h25.969228c9.338464 0 10.054627-.962123 10.297574-10.316435v-19.31544z" opacity=".2"/><path d="m41.096643 62.7494 15.874219-15.874219v5.948567c-.01384 8.994282-1.006077 9.925652-10.099734 9.925652z" opacity=".4"/></g><path d="m185.33354 74.825228-66-65.9999998.003 24.9985698v1 .53711c0 35.29429 3.62603 39.63197 38.99414 39.45899z" fill="url(#a)" filter="url(#b)" opacity=".2" transform="matrix(.26457031 0 0 .26457031 7.937109 1.150756)"/><path d="m56.970862 20.94729v-.529141l-16.9325-16.9324988h-.529141v6.6140178.26457.142103c0 9.118097 1.587422 10.440949 10.316692 10.439679z" opacity=".15"/><path d="m56.970086 20.416739-16.930949-16.9309508v6.084601.264571.142103c0 9.3378198.95934 10.4854418 10.316692 10.4396758z" fill="#faf8f6"/></svg>

<?xml version="1.0" encoding="UTF-8" standalone="no"?>
<svg
   xmlns:dc="http://purl.org/dc/elements/1.1/"
   xmlns:cc="http://creativecommons.org/ns#"
   xmlns:rdf="http://www.w3.org/1999/02/22-rdf-syntax-ns#"
   xmlns:svg="http://www.w3.org/2000/svg"
   xmlns="http://www.w3.org/2000/svg"
   xmlns:xlink="http://www.w3.org/1999/xlink"
   xmlns:sodipodi="http://sodipodi.sourceforge.net/DTD/sodipodi-0.dtd"
   xmlns:inkscape="http://www.inkscape.org/namespaces/inkscape"
   height="256"
   viewBox="0 0 67.73 67.73"
   width="256"
   version="1.1"
   id="svg39"
   sodipodi:docname="text-x-vala.svg"
   inkscape:version="0.92.5 (2060ec1f9f, 2020-04-08)">
  <metadata
     id="metadata45">
    <rdf:RDF>
      <cc:Work
         rdf:about="">
        <dc:format>image/svg+xml</dc:format>
        <dc:type
           rdf:resource="http://purl.org/dc/dcmitype/StillImage" />
      </cc:Work>
    </rdf:RDF>
  </metadata>
  <defs
     id="defs43">
    <radialGradient
       inkscape:collect="always"
       xlink:href="#linearGradient1750"
       id="radialGradient1752"
       cx="179.99261"
       cy="103.2822"
       fx="179.99261"
       fy="103.2822"
       r="35.068905"
       gradientTransform="matrix(1.3687341,-2.0954866e-7,2.0316901e-7,1.3528551,-121.02851,-70.900578)"
       gradientUnits="userSpaceOnUse" />
    <linearGradient
       inkscape:collect="always"
       id="linearGradient1750">
      <stop
         style="stop-color:#000000;stop-opacity:1;"
         offset="0"
         id="stop1746" />
      <stop
         style="stop-color:#000000;stop-opacity:0;"
         offset="1"
         id="stop1748" />
    </linearGradient>
    <filter
       inkscape:collect="always"
       style="color-interpolation-filters:sRGB"
       id="filter2553"
       x="-0.071999997"
       width="1.1440001"
       y="-0.071999997"
       height="1.1440001">
      <feGaussianBlur
         inkscape:collect="always"
         stdDeviation="1.98"
         id="feGaussianBlur2555" />
    </filter>
    <linearGradient
       gradientUnits="userSpaceOnUse"
       y2="119.09284"
       x2="-35.310345"
       y1="401.58368"
       x1="529.65515"
       id="linearGradient4226"
       xlink:href="#linearGradient4338"
       inkscape:collect="always"
       gradientTransform="matrix(0,-0.11988342,0.11987999,0,0.3627617,62.749399)" />
    <linearGradient
       inkscape:collect="always"
       id="linearGradient4338">
      <stop
         style="stop-color:#f2f2f2;stop-opacity:1"
         offset="0"
         id="stop4340" />
      <stop
         style="stop-color:#f9f9f9;stop-opacity:1"
         offset="1"
         id="stop4342" />
    </linearGradient>
    <linearGradient
       inkscape:collect="always"
       xlink:href="#linearGradient4360"
       id="linearGradient4358"
       x1="88"
       y1="88"
       x2="488"
       y2="488"
       gradientUnits="userSpaceOnUse" />
    <linearGradient
       id="linearGradient4360"
       inkscape:collect="always">
      <stop
         id="stop4362"
         offset="0"
         style="stop-color:#000000;stop-opacity:0.58823532" />
      <stop
         style="stop-color:#000000;stop-opacity:0"
         offset="0.88"
         id="stop4364" />
      <stop
         id="stop4366"
         offset="1"
         style="stop-color:#000000;stop-opacity:1" />
    </linearGradient>
    <filter
       inkscape:collect="always"
       style="color-interpolation-filters:sRGB"
       id="filter4380"
       x="-0.052999184"
       width="1.1059984"
       y="-0.043862626"
       height="1.0877253">
      <feGaussianBlur
         inkscape:collect="always"
         stdDeviation="8.4801079"
         id="feGaussianBlur4382" />
    </filter>
    <filter
       inkscape:collect="always"
       style="color-interpolation-filters:sRGB"
       id="filter4346"
       x="-0.013249796"
       width="1.0264996"
       y="-0.010965657"
       height="1.0219313">
      <feGaussianBlur
         inkscape:collect="always"
         stdDeviation="2.120027"
         id="feGaussianBlur4348" />
    </filter>
  </defs>
  <sodipodi:namedview
     pagecolor="#ffffff"
     bordercolor="#666666"
     borderopacity="1"
     objecttolerance="10"
     gridtolerance="10"
     guidetolerance="10"
     inkscape:pageopacity="0"
     inkscape:pageshadow="2"
     inkscape:window-width="834"
     inkscape:window-height="480"
     id="namedview41"
     showgrid="false"
     inkscape:zoom="0.921875"
     inkscape:cx="128"
     inkscape:cy="128"
     inkscape:window-x="0"
     inkscape:window-y="28"
     inkscape:window-maximized="0"
     inkscape:current-layer="svg39" />
  <linearGradient
     id="a"
     gradientTransform="matrix(0 -.11988932 .11988589 0 .36278 292.5483)"
     gradientUnits="userSpaceOnUse"
     x1="529.655"
     x2="-35.31"
     y1="401.584"
     y2="119.093">
    <stop
       offset="0"
       stop-color="#f2f2f2"
       id="stop2" />
    <stop
       offset="1"
       stop-color="#f9f9f9"
       id="stop4" />
  </linearGradient>
  <linearGradient
     id="b"
     gradientUnits="userSpaceOnUse"
     x1="88"
     x2="488"
     y1="88"
     y2="488">
    <stop
       offset="0"
       stop-opacity=".588235"
       id="stop7" />
    <stop
       offset=".88"
       stop-opacity="0"
       id="stop9" />
    <stop
       offset="1"
       id="stop11" />
  </linearGradient>
  <filter
     id="c"
     color-interpolation-filters="sRGB"
     height="1.022"
     width="1.026"
     x="-.01"
     y="-.01">
    <feGaussianBlur
       stdDeviation="2.12"
       id="feGaussianBlur14" />
  </filter>
  <path
     sodipodi:nodetypes="scccssscccs"
     inkscape:connector-curvature="0"
     id="path1163"
     d="m 20.703991,3.4856502 c -9.338465,0 -10.343273,0.959177 -10.297505,10.3165298 v 19.315345 19.315344 c -0.04577,9.357355 0.95904,10.316531 10.297505,10.316531 h 25.969365 c 9.338465,0 10.297506,-0.959068 10.297506,-10.316531 V 33.117525 20.418149 L 40.038362,3.4856502 Z"
     style="color:#000000;display:inline;overflow:visible;visibility:visible;opacity:0.2;fill:none;fill-opacity:1;fill-rule:nonzero;stroke:#000000;stroke-width:1.0582813;stroke-miterlimit:4;stroke-dasharray:none;stroke-opacity:1;marker:none;enable-background:accumulate" />
  <path
     style="color:#000000;display:inline;overflow:visible;visibility:visible;opacity:0.1;fill:#000000;fill-opacity:1;fill-rule:nonzero;stroke:none;stroke-width:2;marker:none;filter:url(#filter4346);enable-background:accumulate"
     d="M 189.84323,74 C 119.24979,74 111.65402,81.250835 112,151.98706 V 298 444.01294 C 111.65402,514.74917 119.24979,522 189.84323,522 H 386.15677 C 456.75021,522 462.16345,514.72616 464,444.01294 V 298 200 L 336,74 Z"
     id="rect4158-9"
     inkscape:connector-curvature="0"
     sodipodi:nodetypes="scccssscccs"
     transform="matrix(0.13228516,0,0,0.13228516,-4.4094514,-6.0388816)" />
  <path
     sodipodi:nodetypes="scccssscccs"
     inkscape:connector-curvature="0"
     id="path4350"
     d="M 189.84323,74 C 119.24979,74 111.65402,81.250835 112,151.98706 V 298 444.01294 C 111.65402,514.74917 119.24979,522 189.84323,522 H 386.15677 C 456.75021,522 464,514.75001 464,444.01294 V 298 202 L 336,74 Z"
     style="color:#000000;display:inline;overflow:visible;visibility:visible;opacity:0.3;fill:url(#linearGradient4358);fill-opacity:1;fill-rule:nonzero;stroke:none;stroke-width:2;marker:none;filter:url(#filter4380);enable-background:accumulate"
     transform="matrix(0.13228516,0,0,0.13228516,-4.4094514,-6.0388816)" />
  <path
     style="color:#000000;display:inline;overflow:visible;visibility:visible;fill:url(#linearGradient4226);fill-opacity:1;fill-rule:nonzero;stroke:none;stroke-width:0.26457033;marker:none;enable-background:accumulate"
     d="m 20.703991,3.4856502 c -9.338465,0 -10.343273,0.959177 -10.297505,10.3165298 v 19.315345 19.315344 c -0.04577,9.357355 0.95904,10.316531 10.297505,10.316531 h 25.969365 c 9.338465,0 10.297506,-0.959068 10.297506,-10.316531 V 33.117525 20.418149 L 40.038362,3.4856502 Z"
     id="rect4158"
     inkscape:connector-curvature="0"
     sodipodi:nodetypes="scccssscccs" />
  <path
     style="color:#000000;display:inline;overflow:visible;visibility:visible;opacity:0.6;fill:#ffffff;fill-opacity:1;fill-rule:nonzero;stroke:none;stroke-width:0.26457033;marker:none;enable-background:accumulate"
     d="m 20.70406,3.4856502 c -9.338467,0 -10.343342,0.959339 -10.297574,10.3166908 v 0.529141 C 10.360718,4.9741302 11.365593,4.0147902 20.70406,4.0147902 h 19.334302 v -0.52914 z"
     id="path931"
     inkscape:connector-curvature="0"
     sodipodi:nodetypes="sccsccs" />
  <g
     transform="matrix(1.0885178,0,0,1.0885178,-0.0560828,5.9574932)"
     style="color:#000000;font-style:normal;font-variant:normal;font-weight:normal;font-stretch:normal;font-size:35px;line-height:125%;font-family:Lobster;-inkscape-font-specification:Lobster;text-align:center;letter-spacing:0px;word-spacing:0px;text-anchor:middle;clip-rule:nonzero;display:inline;overflow:visible;visibility:visible;opacity:1;isolation:auto;mix-blend-mode:normal;color-interpolation:sRGB;color-interpolation-filters:linearRGB;solid-color:#000000;solid-opacity:1;fill:#7839b7;fill-opacity:1;fill-rule:nonzero;stroke:none;stroke-width:0.24305557;stroke-linecap:butt;stroke-linejoin:miter;stroke-miterlimit:4;stroke-dasharray:none;stroke-dashoffset:0;stroke-opacity:1;color-rendering:auto;image-rendering:auto;shape-rendering:auto;text-rendering:auto;enable-background:accumulate"
     id="text4203">
    <path
       inkscape:connector-curvature="0"
       d="M 28.137527,45.125 27.573563,21.216309 q -2.460938,0.922851 -3.845215,2.888183 -1.367188,1.965332 -1.367188,4.887695 0,0.666504 0.06836,1.09375 0.08545,0.410157 0.170898,0.666504 0.08545,0.239258 0.153809,0.375977 0.08545,0.136719 0.08545,0.239258 -0.905762,0 -1.606445,-0.170899 -0.700684,-0.187988 -1.1792,-0.581054 Q 19.592606,30.222656 19.336258,29.573242 19.097,28.923828 19.097,27.966797 q 0,-1.16211 0.495606,-2.290039 0.512695,-1.12793 1.384277,-2.136231 0.888672,-1.0083 2.067871,-1.862793 1.196289,-0.854492 2.546387,-1.469726 1.367187,-0.632324 2.836914,-0.974121 1.486816,-0.358887 2.956543,-0.358887 0.393066,0 0.717773,0.01709 0.341797,0.01709 0.683594,0.05127 l 0.307617,21.533203 7.365723,-21.430664 h 2.443847 l -9.724121,26.079102 z"
       style="color:#000000;clip-rule:nonzero;display:inline;overflow:visible;visibility:visible;isolation:auto;mix-blend-mode:normal;color-interpolation:sRGB;color-interpolation-filters:linearRGB;solid-color:#000000;solid-opacity:1;fill:#7839b7;fill-opacity:1;fill-rule:nonzero;stroke-width:0.24305557;stroke-linecap:butt;stroke-linejoin:miter;stroke-miterlimit:4;stroke-dasharray:none;stroke-dashoffset:0;stroke-opacity:1;color-rendering:auto;image-rendering:auto;shape-rendering:auto;text-rendering:auto;enable-background:accumulate"
       id="path4171" />
  </g>
  <path
     style="color:#000000;display:inline;overflow:visible;visibility:visible;opacity:0.1;fill:#ffffff;fill-opacity:1;fill-rule:nonzero;stroke:none;stroke-width:0.26457033;marker:none;enable-background:accumulate"
     d="M 33.688674,3.4856502 V 62.7494 h 12.984614 c 9.338464,0 10.054627,-0.962123 10.297574,-10.316435 V 33.117525 20.418149 L 40.038362,3.4856502 Z"
     id="path4231"
     inkscape:connector-curvature="0"
     sodipodi:nodetypes="ccsscccc" />
  <path
     inkscape:connector-curvature="0"
     style="color:#000000;display:inline;overflow:visible;visibility:visible;opacity:0.2;fill:#ffffff;fill-opacity:1;fill-rule:nonzero;stroke:none;stroke-width:0.26457033;marker:none;enable-background:accumulate"
     d="m 10.406486,33.117525 v 19.31544 C 10.360716,61.790319 11.365594,62.7494 20.70406,62.7494 h 25.969228 c 9.338464,0 10.054627,-0.962123 10.297574,-10.316435 v -19.31544 z"
     id="path4255"
     sodipodi:nodetypes="ccssscc" />
  <path
     style="color:#000000;display:inline;overflow:visible;visibility:visible;opacity:0.4;fill:#ffffff;fill-opacity:1;fill-rule:nonzero;stroke:none;stroke-width:2.11656237;stroke-linecap:butt;stroke-linejoin:miter;stroke-miterlimit:4;stroke-dasharray:none;stroke-dashoffset:0;stroke-opacity:1;marker:none;enable-background:accumulate"
     d="M 41.096643,62.7494 56.970862,46.875181 v 5.948567 C 56.957022,61.81803 55.964785,62.7494 46.871128,62.7494 Z"
     id="path4254"
     inkscape:connector-curvature="0"
     sodipodi:nodetypes="cccsc" />
  <path
     inkscape:connector-curvature="0"
     style="color:#000000;display:inline;overflow:visible;visibility:visible;opacity:0.2;fill:url(#radialGradient1752);fill-opacity:1;fill-rule:nonzero;stroke:none;stroke-width:1;marker:none;filter:url(#filter2553);enable-background:accumulate"
     d="m 185.33354,74.825228 -66,-65.9999998 0.003,24.9985698 v 1 0.53711 c 0,35.29429 3.62603,39.63197 38.99414,39.45899 z"
     id="rect4158-0-3-6"
     sodipodi:nodetypes="ccccscc"
     transform="matrix(0.26457031,0,0,0.26457031,7.9371086,1.1507562)" />
  <path
     inkscape:connector-curvature="0"
     style="color:#000000;display:inline;overflow:visible;visibility:visible;opacity:0.15;fill:#000000;fill-opacity:1;fill-rule:nonzero;stroke:none;stroke-width:0.26457033;marker:none;enable-background:accumulate"
     d="M 56.970862,20.94729 V 20.418149 L 40.038362,3.4856502 h -0.529141 v 6.6140178 0.26457 0.142103 c 0,9.118097 1.587422,10.440949 10.316692,10.439679 z"
     id="rect4158-0-3-2"
     sodipodi:nodetypes="ccccccscc" />
  <path
     inkscape:connector-curvature="0"
     style="color:#000000;display:inline;overflow:visible;visibility:visible;fill:#faf8f6;fill-opacity:1;fill-rule:nonzero;stroke:none;stroke-width:0.26457033;marker:none;enable-background:accumulate"
     d="M 56.970086,20.416739 40.039137,3.4857882 v 6.084601 0.264571 0.142103 c 0,9.3378198 0.95934,10.4854418 10.316692,10.4396758 z"
     id="rect4158-0-3" />
</svg>
